humanity-icon-theme/Humanity/apps/24/gnome-sound-recorder.svg

<?xml version="1.0" encoding="UTF-8" standalone="no"?>
<!-- Created with Inkscape (http://www.inkscape.org/) -->

<svg
   xmlns:svg="http://www.w3.org/2000/svg"
   xmlns="http://www.w3.org/2000/svg"
   xmlns:xlink="http://www.w3.org/1999/xlink"
   version="1.1"
   width="24"
   height="24"
   id="svg2679">
  <defs
     id="defs2681">
    <linearGradient
       id="linearGradient3242">
      <stop
         id="stop3244"
         style="stop-color:#f8b17e;stop-opacity:1"
         offset="0" />
      <stop
         id="stop3246"
         style="stop-color:#e35d4f;stop-opacity:1"
         offset="0.26238" />
      <stop
         id="stop3248"
         style="stop-color:#c6262e;stop-opacity:1"
         offset="0.66093999" />
      <stop
         id="stop3250"
         style="stop-color:#690b54;stop-opacity:1"
         offset="1" />
    </linearGradient>
    <linearGradient
       id="linearGradient2490">
      <stop
         id="stop2492"
         style="stop-color:#791235;stop-opacity:1"
         offset="0" />
      <stop
         id="stop2494"
         style="stop-color:#dd3b27;stop-opacity:1"
         offset="1" />
    </linearGradient>
    <linearGradient
       x1="63.397362"
       y1="-12.489107"
       x2="63.397362"
       y2="5.4675598"
       id="linearGradient2837"
       xlink:href="#linearGradient4873"
       gradientUnits="userSpaceOnUse"
       gradientTransform="matrix(0.4002058,0,0,0.40019669,-18.892964,7.4050246)" />
    <linearGradient
       id="linearGradient4873">
      <stop
         id="stop4875"
         style="stop-color:white;stop-opacity:1"
         offset="0" />
      <stop
         id="stop4877"
         style="stop-color:white;stop-opacity:0"
         offset="1" />
    </linearGradient>
    <radialGradient
       cx="23.895569"
       cy="3.9900031"
       r="20.397499"
       fx="23.895569"
       fy="3.9900031"
       id="radialGradient2885"
       xlink:href="#linearGradient3242"
       gradientUnits="userSpaceOnUse"
       gradientTransform="matrix(0,0.52770626,-0.69656271,0,8.7792876,-11.447494)" />
    <linearGradient
       x1="18.379412"
       y1="44.980297"
       x2="18.379412"
       y2="3.0816143"
       id="linearGradient2887"
       xlink:href="#linearGradient2490"
       gradientUnits="userSpaceOnUse"
       gradientTransform="matrix(0.22110679,0,0,0.22110685,0.69343711,0.69346564)" />
    <linearGradient
       id="linearGradient6672">
      <stop
         id="stop6674"
         style="stop-color:black;stop-opacity:1"
         offset="0" />
      <stop
         id="stop6676"
         style="stop-color:black;stop-opacity:0"
         offset="1" />
    </linearGradient>
    <linearGradient
       id="linearGradient3324-2">
      <stop
         id="stop3830-5"
         style="stop-color:white;stop-opacity:0.74901962"
         offset="0" />
      <stop
         id="stop3328-4"
         style="stop-color:white;stop-opacity:0"
         offset="1" />
    </linearGradient>
    <linearGradient
       id="linearGradient3155-1">
      <stop
         id="stop3157-9"
         style="stop-color:white;stop-opacity:1"
         offset="0" />
      <stop
         id="stop3159-6"
         style="stop-color:#9b9b9b;stop-opacity:1"
         offset="1" />
    </linearGradient>
    <linearGradient
       id="linearGradient3685-2">
      <stop
         id="stop3687-8"
         style="stop-color:white;stop-opacity:0"
         offset="0" />
      <stop
         id="stop3689-3"
         style="stop-color:black;stop-opacity:0.49803922"
         offset="0.77083331" />
      <stop
         id="stop3691-8"
         style="stop-color:black;stop-opacity:1"
         offset="1" />
    </linearGradient>
    <linearGradient
       id="linearGradient3165-5">
      <stop
         id="stop3167-2"
         style="stop-color:#1e1e1e;stop-opacity:1"
         offset="0" />
      <stop
         id="stop3173-9"
         style="stop-color:#8d8d8d;stop-opacity:1"
         offset="0.26635548" />
      <stop
         id="stop3169-0"
         style="stop-color:#eee;stop-opacity:1"
         offset="1" />
    </linearGradient>
    <linearGradient
       id="linearGradient3179-2">
      <stop
         id="stop3181-0"
         style="stop-color:white;stop-opacity:1"
         offset="0" />
      <stop
         id="stop3183-5"
         style="stop-color:white;stop-opacity:0"
         offset="1" />
    </linearGradient>
    <linearGradient
       id="linearGradient3449-4">
      <stop
         id="stop3451-2"
         style="stop-color:white;stop-opacity:1"
         offset="0" />
      <stop
         id="stop3453-2"
         style="stop-color:#9b9b9b;stop-opacity:0"
         offset="1" />
    </linearGradient>
    <linearGradient
       id="linearGradient3787-6">
      <stop
         id="stop3789-1"
         style="stop-color:#3c3c3c;stop-opacity:1"
         offset="0" />
      <stop
         id="stop3791-0"
         style="stop-color:#1e1e1e;stop-opacity:1"
         offset="1" />
    </linearGradient>
    <linearGradient
       x1="26.545988"
       y1="25.604839"
       x2="28.415308"
       y2="23.37669"
       id="linearGradient3968"
       xlink:href="#linearGradient3165-5"
       gradientUnits="userSpaceOnUse"
       gradientTransform="matrix(0.50949066,0,0,0.52040707,1.5043936,-1.9054658)" />
    <radialGradient
       cx="36.993458"
       cy="13.953826"
       r="10.024096"
       fx="36.993458"
       fy="13.953826"
       id="radialGradient3971"
       xlink:href="#linearGradient3449-4"
       gradientUnits="userSpaceOnUse"
       gradientTransform="matrix(0.81861479,0.06647403,-0.05597644,0.70333853,-9.6738468,-6.3734066)" />
    <linearGradient
       x1="34.204147"
       y1="17.333593"
       x2="39.000122"
       y2="23.11928"
       id="linearGradient3974"
       xlink:href="#linearGradient3179-2"
       gradientUnits="userSpaceOnUse"
       gradientTransform="matrix(0.44730171,0.00833834,-0.00805699,0.44851767,3.4832056,-0.77867254)"
       spreadMethod="reflect" />
    <linearGradient
       x1="32.302921"
       y1="18.646013"
       x2="34.589996"
       y2="16.08078"
       id="linearGradient3977"
       xlink:href="#linearGradient3165-5"
       gradientUnits="userSpaceOnUse"
       gradientTransform="matrix(0.44730171,0.00833834,-0.00805699,0.44851767,3.4832056,-0.77867254)" />
    <radialGradient
       cx="31.00248"
       cy="20.938292"
       r="0.91428572"
       fx="31.00248"
       fy="20.938292"
       id="radialGradient3980"
       xlink:href="#linearGradient3685-2"
       gradientUnits="userSpaceOnUse"
       gradientTransform="matrix(8.2147609,0.15313478,-0.150325,8.3683102,-229.75279,-175.36909)" />
    <radialGradient
       cx="37.97171"
       cy="11.217601"
       r="10.024096"
       fx="37.97171"
       fy="11.217601"
       id="radialGradient4226"
       xlink:href="#linearGradient3155-1"
       gradientUnits="userSpaceOnUse"
       gradientTransform="matrix(0.46874366,0.00871116,-0.00844322,0.46857164,2.5216937,-0.87381985)" />
    <linearGradient
       x1="17.676191"
       y1="28.647619"
       x2="14.221087"
       y2="25.907072"
       id="linearGradient4229"
       xlink:href="#linearGradient3324-2"
       gradientUnits="userSpaceOnUse"
       gradientTransform="matrix(0.50949066,0,0,0.52040707,0.4562985,1.385489)" />
    <radialGradient
       cx="22.679699"
       cy="15.930861"
       r="17.406969"
       fx="22.679699"
       fy="15.930861"
       id="radialGradient4232"
       xlink:href="#linearGradient3787-6"
       gradientUnits="userSpaceOnUse"
       gradientTransform="matrix(-0.29660425,0.70713337,-0.26731906,-0.12270121,23.962892,-4.1793307)" />
    <radialGradient
       cx="25"
       cy="45"
       r="20"
       fx="25"
       fy="45"
       id="radialGradient4235"
       xlink:href="#linearGradient6672"
       gradientUnits="userSpaceOnUse"
       gradientTransform="matrix(0.3,0,0,0.075,0.5,19.125)" />
  </defs>
  <path
     d="m 6.0000011,1.5018877 c -2.4819194,0 -4.4981423,2.0162224 -4.4981423,4.4981418 0,2.4819204 2.0162229,4.4981445 4.4981423,4.4981435 2.4819174,0 4.4981419,-2.0162231 4.4981399,-4.4981435 0,-2.4819194 -2.0162225,-4.4981418 -4.4981399,-4.4981418 z"
     id="path2555"
     style="fill:url(#radialGradient2885);fill-opacity:1;stroke:url(#linearGradient2887);stroke-width:1.00365424;stroke-linecap:round;stroke-linejoin:round;stroke-miterlimit:4;stroke-opacity:1;stroke-dasharray:none;stroke-dashoffset:0" />
  <path
     d="M 9.5,5.9998759 C 9.5,7.9329347 7.9328798,9.5 6.0000445,9.5 4.0670303,9.5 2.5,7.9329175 2.5,5.9998759 2.5,4.0669066 4.0670303,2.5 6.0000445,2.5 7.9328798,2.5 9.5,4.0669066 9.5,5.9998759 l 0,0 z"
     id="path2463"
     style="opacity:0.4;fill:none;stroke:url(#linearGradient2837);stroke-width:1;stroke-miterlimit:4;stroke-opacity:1;stroke-dasharray:none" />
  <path
     d="m 14,22.5 a 6,1.5 0 0 1 -12,0 6,1.5 0 1 1 12,0 z"
     id="path3412"
     style="opacity:0.4;fill:url(#radialGradient4235);fill-opacity:1;stroke:none" />
  <path
     d="M 13.122308,9.0035282 4,20.224496 C 4.46582,22.88105 7.1054667,23 7.1054667,23 L 17.780507,13.127135 13.122308,9.0035282 z"
     id="path3320"
     style="fill:url(#radialGradient4232);fill-opacity:1;fill-rule:evenodd;stroke:none" />
  <path
     d="M 13.987197,10.769864 C 5.0189491,21.202293 4.6268612,21.412783 4.6268612,21.412783 c 0,0 -0.532649,-0.557831 -0.5714673,-1.152581 L 12.905972,9.3960842 c 0,0 0.307094,0.6432148 1.081225,1.3737798 z"
     id="path3322-4"
     style="opacity:0.23999999;fill:url(#linearGradient4229);fill-opacity:1;fill-rule:evenodd;stroke:none" />
  <path
     d="M 22.749288,7.5792504 A 4.2506628,4.2477763 29.174262 1 1 14.250713,7.4213126 4.2506628,4.2477763 29.174262 1 1 22.749288,7.5792504 z"
     id="path2383"
     style="fill:url(#radialGradient4226);fill-opacity:1;stroke:#787878;stroke-width:0.5;stroke-miterlimit:4;stroke-opacity:1;stroke-dasharray:none" />
  <path
     d="M 22.807982,7.5718228 A 4.4043293,4.4866543 0 1 1 14.0008,7.4076446 4.4043293,4.4866543 0 1 1 22.807982,7.5718228 z"
     id="path3681"
     style="opacity:0.19069764;fill:url(#radialGradient3980);fill-opacity:1;stroke:none" />
  <path
     d="m 15.646653,3.9455609 c 0,0 1.775144,2.4130198 6.619302,6.0479704 0.197926,0.1485217 -0.374942,0.7692117 -0.571347,0.5947817 0,0 -2.999324,-1.4739662 -6.664747,-5.9190827 -0.18159,-0.2202187 0.13633,-0.386665 0.616792,-0.7236694 z"
     id="path3163"
     style="fill:url(#linearGradient3977);fill-opacity:1;fill-rule:evenodd;stroke:none" />
  <path
     d="m 15.646653,3.9455609 c 0,0 1.775144,2.4130198 6.619302,6.0479704 0.197926,0.1485217 -0.374942,0.7692117 -0.571347,0.5947817 0,0 -2.999324,-1.4739662 -6.664747,-5.9190827 -0.18159,-0.2202187 0.13633,-0.386665 0.616792,-0.7236694 z"
     id="path3177"
     style="opacity:0.67441861;fill:url(#linearGradient3974);fill-opacity:1;fill-rule:evenodd;stroke:none" />
  <path
     d="m 22.999256,7.5854774 a 4.4968969,4.4843861 84.010257 1 1 -8.96759,-0.1671684 4.4968969,4.4843861 84.010257 1 1 8.96759,0.1671684 z"
     id="path2677"
     style="opacity:0.47906979;fill:url(#radialGradient3971);fill-opacity:1;stroke:none" />
  <path
     d="M 17.60599,13.22978 C 17.976674,13.18245 19,12 19,12 17.382023,12 14,8 14,8 c 0,0 -0.958059,0.899239 -0.888556,1.1595443 0,0 2.224105,2.6977137 4.494546,4.0702357 z"
     id="path3302"
     style="fill:url(#linearGradient3968);fill-opacity:1;fill-rule:evenodd;stroke:#787878;stroke-width:0.30000001;stroke-miterlimit:4;stroke-opacity:1;stroke-dasharray:none" />
</svg>

<?xml version="1.0" encoding="UTF-8" standalone="no"?>
<!-- Created with Inkscape (http://www.inkscape.org/) -->
<svg id="svg2679" xmlns="http://www.w3.org/2000/svg" height="24" width="24" version="1.1" xmlns:xlink="http://www.w3.org/1999/xlink">
 <defs id="defs2681">
  <linearGradient id="linearGradient2837" y2="5.4676" gradientUnits="userSpaceOnUse" x2="63.397" gradientTransform="matrix(.40021 0 0 .40020 -18.893 7.405)" y1="-12.489" x1="63.397">
   <stop id="stop4875" style="stop-color:#fff" offset="0"/>
   <stop id="stop4877" style="stop-color:#fff;stop-opacity:0" offset="1"/>
  </linearGradient>
  <radialGradient id="radialGradient2885" gradientUnits="userSpaceOnUse" cy="3.99" cx="23.896" gradientTransform="matrix(0 .52771 -.69656 0 8.7793 -11.447)" r="20.397">
   <stop id="stop3244" style="stop-color:#f8b17e" offset="0"/>
   <stop id="stop3246" style="stop-color:#e35d4f" offset=".26238"/>
   <stop id="stop3248" style="stop-color:#c6262e" offset=".66094"/>
   <stop id="stop3250" style="stop-color:#690b54" offset="1"/>
  </radialGradient>
  <linearGradient id="linearGradient2887" y2="3.0816" gradientUnits="userSpaceOnUse" x2="18.379" gradientTransform="matrix(.22111 0 0 .22111 .69344 .69347)" y1="44.98" x1="18.379">
   <stop id="stop2492" style="stop-color:#791235" offset="0"/>
   <stop id="stop2494" style="stop-color:#dd3b27" offset="1"/>
  </linearGradient>
  <linearGradient id="linearGradient3165-5">
   <stop id="stop3167-2" style="stop-color:#1e1e1e" offset="0"/>
   <stop id="stop3173-9" style="stop-color:#8d8d8d" offset=".26636"/>
   <stop id="stop3169-0" style="stop-color:#eee" offset="1"/>
  </linearGradient>
  <linearGradient id="linearGradient3968" y2="23.377" xlink:href="#linearGradient3165-5" gradientUnits="userSpaceOnUse" x2="28.415" gradientTransform="matrix(.50949 0 0 .52041 1.5044 -1.9055)" y1="25.605" x1="26.546"/>
  <radialGradient id="radialGradient3971" gradientUnits="userSpaceOnUse" cy="13.954" cx="36.993" gradientTransform="matrix(.81861 .066474 -.055976 .70334 -9.6738 -6.3734)" r="10.024">
   <stop id="stop3451-2" style="stop-color:#fff" offset="0"/>
   <stop id="stop3453-2" style="stop-color:#9b9b9b;stop-opacity:0" offset="1"/>
  </radialGradient>
  <linearGradient id="linearGradient3974" y2="23.119" spreadMethod="reflect" gradientUnits="userSpaceOnUse" x2="39" gradientTransform="matrix(.44730 .0083383 -.0080570 .44852 3.4832 -.77867)" y1="17.334" x1="34.204">
   <stop id="stop3181-0" style="stop-color:#fff" offset="0"/>
   <stop id="stop3183-5" style="stop-color:#fff;stop-opacity:0" offset="1"/>
  </linearGradient>
  <linearGradient id="linearGradient3977" y2="16.081" xlink:href="#linearGradient3165-5" gradientUnits="userSpaceOnUse" x2="34.59" gradientTransform="matrix(.44730 .0083383 -.0080570 .44852 3.4832 -.77867)" y1="18.646" x1="32.303"/>
  <radialGradient id="radialGradient3980" gradientUnits="userSpaceOnUse" cy="20.938" cx="31.002" gradientTransform="matrix(8.2148 .15313 -.15032 8.3683 -229.75 -175.37)" r=".91429">
   <stop id="stop3687-8" style="stop-color:#fff;stop-opacity:0" offset="0"/>
   <stop id="stop3689-3" style="stop-opacity:.49804" offset=".77083"/>
   <stop id="stop3691-8" offset="1"/>
  </radialGradient>
  <radialGradient id="radialGradient4226" gradientUnits="userSpaceOnUse" cy="11.218" cx="37.972" gradientTransform="matrix(.46874 .0087112 -.0084432 .46857 2.5217 -.87382)" r="10.024">
   <stop id="stop3157-9" style="stop-color:#fff" offset="0"/>
   <stop id="stop3159-6" style="stop-color:#9b9b9b" offset="1"/>
  </radialGradient>
  <linearGradient id="linearGradient4229" y2="25.907" gradientUnits="userSpaceOnUse" x2="14.221" gradientTransform="matrix(.50949 0 0 .52041 .45630 1.3855)" y1="28.648" x1="17.676">
   <stop id="stop3830-5" style="stop-color:#fff;stop-opacity:.74902" offset="0"/>
   <stop id="stop3328-4" style="stop-color:#fff;stop-opacity:0" offset="1"/>
  </linearGradient>
  <radialGradient id="radialGradient4232" gradientUnits="userSpaceOnUse" cy="15.931" cx="22.68" gradientTransform="matrix(-.29660 .70713 -.26732 -.12270 23.963 -4.1793)" r="17.407">
   <stop id="stop3789-1" style="stop-color:#3c3c3c" offset="0"/>
   <stop id="stop3791-0" style="stop-color:#1e1e1e" offset="1"/>
  </radialGradient>
  <radialGradient id="radialGradient4235" gradientUnits="userSpaceOnUse" cy="45" cx="25" gradientTransform="matrix(.3 0 0 .075 .5 19.125)" r="20">
   <stop id="stop6674" offset="0"/>
   <stop id="stop6676" style="stop-opacity:0" offset="1"/>
  </radialGradient>
 </defs>
 <path id="path2555" style="stroke-linejoin:round;stroke:url(#linearGradient2887);stroke-linecap:round;stroke-width:1.0037;fill:url(#radialGradient2885)" d="m6 1.5019c-2.4819 0-4.4981 2.0162-4.4981 4.4981s2.0162 4.4981 4.4981 4.4981 4.4981-2.0162 4.4981-4.4981-2.0162-4.4981-4.4981-4.4981z"/>
 <path id="path2463" style="opacity:.4;stroke:url(#linearGradient2837);fill:none" d="m9.5 5.9999c0 1.933-1.5671 3.5001-3.5 3.5001-1.933 0-3.5-1.5671-3.5-3.5001s1.567-3.4999 3.5-3.4999c1.9329 0 3.5 1.5669 3.5 3.4999z"/>
 <path id="path3412" style="opacity:.4;fill:url(#radialGradient4235)" d="m14 22.5a6 1.5 0 0 1 -12 0 6 1.5 0 1 1 12 0z"/>
 <path id="path3320" style="fill:url(#radialGradient4232);fill-rule:evenodd" d="m13.122 9.0035-9.122 11.22c0.4658 2.657 3.1055 2.776 3.1055 2.776l10.676-9.873-4.66-4.1235z"/>
 <path id="path3322-4" style="opacity:0.24;fill:url(#linearGradient4229);fill-rule:evenodd" d="m13.987 10.77c-8.9681 10.432-9.3601 10.643-9.3601 10.643s-0.53265-0.55783-0.57147-1.1526l8.8506-10.864s0.30709 0.64321 1.0812 1.3738z"/>
 <path id="path2383" style="stroke:#787878;stroke-width:.5;fill:url(#radialGradient4226)" d="m22.749 7.5793a4.2507 4.2478 29.174 1 1 -8.498 -0.158 4.2507 4.2478 29.174 1 1 8.498 0.158z"/>
 <path id="path3681" style="opacity:.19070;fill:url(#radialGradient3980)" d="m22.808 7.5718a4.4043 4.4867 0 1 1 -8.807 -0.1642 4.4043 4.4867 0 1 1 8.807 0.1642z"/>
 <path id="path3163" style="fill:url(#linearGradient3977);fill-rule:evenodd" d="m15.647 3.9456s1.7751 2.413 6.6193 6.048c0.19793 0.14852-0.37494 0.76921-0.57135 0.59478 0 0-2.9993-1.474-6.6647-5.9191-0.18159-0.22022 0.13633-0.38666 0.61679-0.72367z"/>
 <path id="path3177" style="opacity:.67442;fill:url(#linearGradient3974);fill-rule:evenodd" d="m15.647 3.9456s1.7751 2.413 6.6193 6.048c0.19793 0.14852-0.37494 0.76921-0.57135 0.59478 0 0-2.9993-1.474-6.6647-5.9191-0.18159-0.22022 0.13633-0.38666 0.61679-0.72367z"/>
 <path id="path2677" style="opacity:.47907;fill:url(#radialGradient3971)" d="m22.999 7.5855a4.4969 4.4844 84.01 1 1 -8.9676 -0.16717 4.4969 4.4844 84.01 1 1 8.9676 0.16717z"/>
 <path id="path3302" style="fill-rule:evenodd;stroke:#787878;stroke-width:0.3;fill:url(#linearGradient3968)" d="m17.606 13.23c0.371-0.048 1.394-1.23 1.394-1.23-1.618 0-5-4-5-4s-0.95806 0.89924-0.88856 1.1595c0 0 2.2241 2.6977 4.4945 4.0702z"/>
</svg>
